X: 756
T: Old Spinning Wheel
B: jims roots
M:4/4
L:1/8
Q: 1/4=100
K:Cmaj
V:1 
EF |: "C"G2ec G2EG | "G"F D3- D2 DE | F2dB G2FG | "C"E4- E2EF |
G2ec G2EG | "G"FD3- D2DE | F2dB G2AB | "C"c4- "C7"cc_B ||
"F"A2cA dcAB | A"G"G3- G2-G2 | "C"GGGG AGEG | D4- "G"D2EF |
"C"G2ec G2EG | "G"FD3- D2DE | F2dB G2AB | [1 "C"c4- c2EF :|  [2 c4 c2zz |]
% abcbook-tune_id 6298c279cc0ceafb5b4396c8


% abcbook-boost 0
% abcbook-tablature 
% abcbook-transpose 
% abcbook-lastupdated 1654178426083
% abcbook-soundfonts 
% abcbook-repeats 1


